public/images/tech-icons/css3-plain.svg

<svg xmlns="http://www.w3.org/2000/svg" viewBox="0 0 128 128"><path fill="#1572B6" d="M8.76 1l10.055 112.883 45.118 12.58 45.244-12.626 10.063-112.837h-110.48zm89.591 25.862l-3.347 37.605.01.203-.014.467v-.004l-2.378 26.294-.262 2.336-28.36 7.844v.001l-.022.019-28.311-7.888-1.917-21.739h13.883l.985 11.054 15.386 4.17-.004.008v-.002l15.443-4.229 1.632-18.001h-32.282999999999994l-.277-3.043-.631-7.129-.331-3.828h34.748999999999995l1.264-14h-52.926l-.277-3.041-.63-7.131-.332-3.828h69.281l-.331 3.862z"/></svg>

<?xml version="1.0" encoding="utf-8"?>
<!-- Generator: Adobe Illustrator 21.1.0, SVG Export Plug-In . SVG Version: 6.00 Build 0)  -->
<svg version="1.1" id="Layer_1" xmlns="http://www.w3.org/2000/svg" xmlns:xlink="http://www.w3.org/1999/xlink" x="0px" y="0px"
	 viewBox="0 0 128 128" style="enable-background:new 0 0 128 128;" xml:space="preserve">
<g>
	<path d="M8.8,1l10.1,112.9L64,126.5l45.2-12.6L119.2,1H8.8z M98.4,26.9L95,64.5v0.2v0.5l0,0l-2.4,26.3l-0.3,2.3L64,101.6l0,0l0,0
		l-28.3-7.9L33.8,72h13.9l1,11.1L64,87.2l0,0l0,0L79.4,83L81,65H48.8l-0.3-3l-0.6-7.1L47.6,51h34.7l1.3-14h-53l-0.3-3l-0.6-7.1
		L29.4,23h69.3C98.7,23,98.4,26.9,98.4,26.9z"/>
</g>
</svg>
